X:191
T: Jaj annak a fának, kit a fejsze levág
M:2/4
L:1/4
K:G
G/G/A/B/ | c B | A/G/B/A/ | G G |
d/d/e/f/ | g f | e/d/f/e/ | d d |
g/f/e/f/ | g d | e/c/c/e/ | d A |
G/G/A/B/ | c B | A/G/B/A/ | G G |


